svgs/sharp-regular/cloud-minus.svg

<svg xmlns="http://www.w3.org/2000/svg" viewBox="0 0 640 512"><!--! Font Awesome Pro 6.6.0 by @fontawesome - https://fontawesome.com License - https://fontawesome.com/license (Commercial License) Copyright 2024 Fonticons, Inc. --><path d="M0 336c0-62.7 40.1-116 96-135.8l0-8.2c0-88.4 71.6-160 160-160c47.9 0 90.8 21 120.1 54.3C388.7 82.2 402.1 80 416 80c70.7 0 128 57.3 128 128l0 20c55.2 14.2 96 64.3 96 124l0 80 0 48-48 0-80 0-368 0-96 0L0 480l0-48 0-96zm592 16c0-37.2-25.4-68.6-60-77.5l-36-9.3 0-37.2 0-20c0-44.2-35.8-80-80-80c-8.8 0-17.1 1.4-24.9 3.9L361 141.8 340.1 118C319.5 94.6 289.5 80 256 80c-61.9 0-112 50.1-112 112l0 8.2 0 33.9-32 11.3C74.6 258.7 48 294.3 48 336l0 96 96 0 368 0 80 0 0-80zM248 264l144 0 24 0 0 48-24 0-144 0-24 0 0-48 24 0z"/></svg>

<svg xmlns="http://www.w3.org/2000/svg" viewBox="0 0 640 512"><!--! Font Awesome Pro 6.4.2 by @fontawesome - https://fontawesome.com License - https://fontawesome.com/license (Commercial License) Copyright 2023 Fonticons, Inc. --><path d="M0 336c0-62.7 40.1-116 96-135.8V192c0-88.4 71.6-160 160-160c47.9 0 90.8 21 120.1 54.3C388.7 82.2 402.1 80 416 80c70.7 0 128 57.3 128 128v20c55.2 14.2 96 64.3 96 124v80 48H592 512 144 48 0V432 336zm592 16c0-37.2-25.4-68.6-60-77.5l-36-9.3V228 208c0-44.2-35.8-80-80-80c-8.8 0-17.1 1.4-24.9 3.9L361 141.8 340.1 118C319.5 94.6 289.5 80 256 80c-61.9 0-112 50.1-112 112v8.2 33.9l-32 11.3C74.6 258.7 48 294.3 48 336v96h96H512h80V352zM248 264H392h24v48H392 248 224V264h24z"/></svg>
